X: 11380
T: Earl's Lane
R: jig
M: 6/8
K: Bminor
|:FBB Bcd|cBA BAF|ABA ABA|ece a^ga|
abf afe|cef ece|~f3 edc|1 dcB B2A:|2 dcB B2c||
~d3 fed|ecA AGF|~G3 Bcd|B/c/de efg|
faf gab|agf efg|fgf edc|dcB cde|
fdd gdd|ecA ecA|~G3 Bcd|B/c/de efg|
faf gab|agf efg|faf gab|agf ecA||

